svg/system/loading_line.svg

<?xml version="1.0" encoding="UTF-8"?>
<svg width="24px" height="24px" viewBox="0 0 24 24" version="1.1" xmlns="http://www.w3.org/2000/svg" xmlns:xlink="http://www.w3.org/1999/xlink">
    <title>loading_line</title>
    <defs>
        <linearGradient x1="50%" y1="5.27054794%" x2="50%" y2="91.7931275%" id="linearGradient-1">
            <stop stop-color="#09244B" offset="0%"></stop>
            <stop stop-color="#09244B" stop-opacity="0.55" offset="100%"></stop>
        </linearGradient>
        <linearGradient x1="50%" y1="8.8774624%" x2="50%" y2="90.4152072%" id="linearGradient-2">
            <stop stop-color="#09244B" stop-opacity="0" offset="0%"></stop>
            <stop stop-color="#09244B" stop-opacity="0.55" offset="100%"></stop>
        </linearGradient>
    </defs>
    <g id="Icon" stroke="none" stroke-width="1" fill="none" fill-rule="evenodd">
        <g id="System" transform="translate(-384.000000, -514.000000)" fill-rule="nonzero">
            <g id="loading_line" transform="translate(384.000000, 514.000000)">
                <path d="M24,0 L24,24 L0,24 L0,0 L24,0 Z M12.5934901,23.257841 L12.5819402,23.2595131 L12.5108777,23.2950439 L12.4918791,23.2987469 L12.4918791,23.2987469 L12.4767152,23.2950439 L12.4056548,23.2595131 C12.3958229,23.2563662 12.3870493,23.2590235 12.3821421,23.2649074 L12.3780323,23.275831 L12.360941,23.7031097 L12.3658947,23.7234994 L12.3769048,23.7357139 L12.4804777,23.8096931 L12.4953491,23.8136134 L12.4953491,23.8136134 L12.5071152,23.8096931 L12.6106902,23.7357139 L12.6232938,23.7196733 L12.6232938,23.7196733 L12.6266527,23.7031097 L12.609561,23.275831 C12.6075724,23.2657013 12.6010112,23.2592993 12.5934901,23.257841 L12.5934901,23.257841 Z M12.8583906,23.1452862 L12.8445485,23.1473072 L12.6598443,23.2396597 L12.6498822,23.2499052 L12.6498822,23.2499052 L12.6471943,23.2611114 L12.6650943,23.6906389 L12.6699349,23.7034178 L12.6699349,23.7034178 L12.678386,23.7104931 L12.8793402,23.8032389 C12.8914285,23.8068999 12.9022333,23.8029875 12.9078286,23.7952264 L12.9118235,23.7811639 L12.8776777,23.1665331 C12.8752882,23.1545897 12.8674102,23.1470016 12.8583906,23.1452862 L12.8583906,23.1452862 Z M12.1430473,23.1473072 C12.1332178,23.1423925 12.1221763,23.1452606 12.1156365,23.1525954 L12.1099173,23.1665331 L12.0757714,23.7811639 C12.0751323,23.7926639 12.0828099,23.8018602 12.0926481,23.8045676 L12.108256,23.8032389 L12.3092106,23.7104931 L12.3186497,23.7024347 L12.3186497,23.7024347 L12.3225043,23.6906389 L12.340401,23.2611114 L12.337245,23.2485176 L12.337245,23.2485176 L12.3277531,23.2396597 L12.1430473,23.1473072 Z" id="MingCute"></path>
                <g id="loading" transform="translate(2.000000, 2.055289)">
                    <path d="M8.88562998,0.00619233305 C9.43454344,-0.0547376847 9.92891925,0.34085105 9.98984927,0.889764502 C10.0507793,1.43867795 9.65519055,1.93305377 9.1062771,1.99398378 C5.07901043,2.44101497 2,5.85886737 2,9.94471104 C2,14.362989 5.581722,17.944711 10,17.944711 L10,19.944711 C4.4771525,19.944711 0,15.4675585 0,9.94471104 C0,4.83694759 3.8481042,0.565363427 8.88562998,0.00619233305 Z" id="路径" fill="url(#linearGradient-1)"></path>
                    <path d="M14.3220047,1.98542191 C14.6379277,1.5324196 15.2612649,1.42129487 15.7142672,1.73721788 C18.3784411,3.59520808 20,6.63424202 20,9.94471104 C20,15.4675585 15.5228475,19.944711 10,19.944711 L10,17.944711 C14.418278,17.944711 18,14.362989 18,9.94471104 C18,7.29512598 16.7036181,4.86552025 14.5702088,3.37768437 C14.1172064,3.06176136 14.0060817,2.43842422 14.3220047,1.98542191 Z" id="路径" fill="url(#linearGradient-2)"></path>
                </g>
            </g>
        </g>
    </g>
</svg>

<svg xmlns="http://www.w3.org/2000/svg" width="24" height="24"><defs><linearGradient id="a" x1="50%" x2="50%" y1="5.271%" y2="91.793%"><stop offset="0%" stop-color="#09244B"/><stop offset="100%" stop-color="#09244B" stop-opacity=".55"/></linearGradient><linearGradient id="b" x1="50%" x2="50%" y1="8.877%" y2="90.415%"><stop offset="0%" stop-color="#09244B" stop-opacity="0"/><stop offset="100%" stop-color="#09244B" stop-opacity=".55"/></linearGradient></defs><g fill="none" fill-rule="nonzero"><path d="M24 0v24H0V0h24ZM12.593 23.258l-.011.002-.071.035-.02.004-.014-.004-.071-.035c-.01-.004-.019-.001-.024.005l-.004.01-.017.428.005.02.01.013.104.074.015.004.012-.004.104-.074.012-.016.004-.017-.017-.427c-.002-.01-.009-.017-.017-.018Zm.265-.113-.013.002-.185.093-.01.01-.003.011.018.43.005.012.008.007.201.093c.012.004.023 0 .029-.008l.004-.014-.034-.614c-.003-.012-.01-.02-.02-.022Zm-.715.002a.023.023 0 0 0-.027.006l-.006.014-.034.614c0 .012.007.02.017.024l.015-.002.201-.093.01-.008.004-.011.017-.43-.003-.012-.01-.01-.184-.092Z"/><path fill="url(#a)" d="M8.886.006a1 1 0 0 1 .22 1.988A8.001 8.001 0 0 0 10 17.944v2c-5.523 0-10-4.476-10-10C0 4.838 3.848.566 8.886.007Z" transform="translate(2 2.055)"/><path fill="url(#b)" d="M14.322 1.985a1 1 0 0 1 1.392-.248A9.988 9.988 0 0 1 20 9.945c0 5.523-4.477 10-10 10v-2a8 8 0 0 0 4.57-14.567 1 1 0 0 1-.248-1.393Z" transform="translate(2 2.055)"/></g></svg>
